X: 1
T: String Quartet in D Minor opus 76 no 2 mvt 2
C: Franz Joseph Haydn
%%abc-version 2.0
%%abcx-abcm2ps-target-version 5.9.1 (29 Sep 2008)
%%abc-creator hum2abc beta
%%abcx-conversion-date 2021/02/14 14:38:08
%%abc-copyright Copyright (c) 1994, 2000 Center for Computer Assisted Research in the Humanities
%%abc-edited-by Frances Bennion
%%abcx-initial-encoding-date 1997/04/15
%%gracespace 0 6 6
%%humdrum-veritas 1309105317
%%humdrum-veritas-data 4048763759
%%linebreak <none>
%%barnumbers 0
L: 1/8
M: 6/8
N: Derived from op76n2-02.krn
Q: "Andante o pi\`u tosto allegretto"
%%staves [1 2 3 4]
V: 1
V: 2
V: 3 clef=alto
V: 4 clef=bass
K: D
[V:1](3:2:2z4z/ A[I:setbarnb1]|
[V:2]z4 zz |
[V:3]z4 zz |
[V:4]z4 zz |
[V:1]FFG/F//G// A2B |
[V:2][FA,]zG Az[BD] |
[V:3]DzD DzD |
[V:4]D,zB,, F,,zG,, |
[V:1]E2D/C//B,// A,2A |
[V:2][EC]z[B,^G] [A,A]z2 |
[V:3]A,zD Cz2 |
[V:4]A,,zE, A,,A,z |
[V:1]FFG/F//G// A2B3//e// |
[V:2][FA,]zG AzB |
[V:3]DzD DzE, |
[V:4]D,zB,, F,,zG,, |
[V:1]dc3/B//c// dzf3//d// |
[V:2]F[cE]z [dF]zz |
[V:3]F,G,z F,zz |
[V:4]A,,A,,z D,D,,z |
[V:1]BBc/B//c// d3/e//f//e//d//c//B// |
[V:2]F2E D2z |
[V:3]DFF F2z |
[V:4]D2^A, B,B,,z |
[V:1]A/^G/Ge dce3//c// |
[V:2]B,2B BAz |
[V:3]D2B,/E/ E2z |
[V:4]E,2^G, A,2z |
[V:1]AAa/>f/ ddf3//d// |
[V:2]EEz AAz |
[V:3]CCz FFz |
[V:4]z6 |
[V:1]BBf/>d/ BB^B |
[V:2]FFz F2A- |
[V:3]DDz F2F,- |
[V:4]z3 D,2D,, |
[V:1]cA/>F/^G/>^E/ F2c3//A// |
[V:2]AF^E/>^G/ F2z |
[V:3]F,CB, A,2z |
[V:4]C,,2>F,,2 F,z |
[V:1]FFc//A//c//A// FFA |
[V:2]CCz CCz |
[V:3]A,A,z A,A,z |
[V:4]F,F,z F,F,z |
[V:1]FFA FFA |
[V:2]z6 |
[V:3]z6 |
[V:4]z6 |
[V:1]FFG/F//G// A2B |
[V:2]D6 |
[V:3]A,2B, A,2E,- |
[V:4]D,2B,, F,,2G,, |
[V:1]E2D/C//B,// A,/B,//C//D//E//F//G//A//B//A//G// |
[V:2]CE^G Az2 |
[V:3]E,CD Cz2 |
[V:4]A,,2E, A,z2 |
[V:1]FFG/F//G// A>^AB3//e// |
[V:2]D6 |
[V:3]DA,B, A,FE |
[V:4]D,2B,, F,,2G,, |
[V:1]dc3/B//c// d2a3//=f// |
[V:2]FG2 F2z |
[V:3]AE3/D//E// F2z |
[V:4]A,,A,,2 D,D,,z |
[V:1]dda/>=f/ ddf3//d// |
[V:2]z6 |
[V:3]z6 |
[V:4]z6 |
[V:1]_BBB BA_e3//=c// |
[V:2]DDD _E2z |
[V:3]=FFF =C2z |
[V:4]_B,,B,,B,, =F,2z |
[V:1]AAA A_Bd3//B// |
[V:2]_EEE EDz |
[V:3]=CCC CDz |
[V:4]=F,F,F, _B,,2z |
[V:1]=fff [g=c][gc][cg] |
[V:2]=ccc [e_B][eB][eB] |
[V:3]=F,=FA GE=C |
[V:4]A,A,=F, =C,C,C, |
[V:1](3:2:2a-a/8=f//g//a//_b//=c'//d'//e'//=f' zf3//d//|
[V:2][A2=f2]z4 |
[V:3][=F2A,2]z4 |
[V:4]=F,2z4 |
[V:1]_BBB BA_e3//=c// |
[V:2]DDD _E2z |
[V:3]=FFF =C2z |
[V:4]_B,,B,,B,, =F,2z |
[V:1]AAA A_Bd3//B// |
[V:2]_EEE EDz |
[V:3]=CCC CDz |
[V:4]=F,F,F, _B,,2z |
[V:1]=fff [^f=c][fc][fc] |
[V:2]=ccc [c_E][cE][cE] |
[V:3]=F,=FA ^F,=CC |
[V:4]A,,A,,A,, _A,,A,,A,, |
[V:1][B3/g3/]a//b//=c'//d'//e'//f'//g' zz|
[V:2][G2B2]z3 d3//B// |
[V:3]D2z4 |
[V:4]G,,2z4 |
[V:1]z2z _a2g//=f//_e//d// |
[V:2]GGd/>B/ =FFB |
[V:3][D2B,2]z B,2D |
[V:4]G,2z G,,2=F, |
[V:1]=ccd _e2G3//_E// |
[V:2]=c_E=F Ez2 |
[V:3]G2B, =Cz2 |
[V:4]_E,=C,G,,/>_E,,/ =C,,C,,z |
[V:1]=CC=c/>G/ _EE_e3//c// |
[V:2]z6 |
[V:3]z6 |
[V:4]z6 |
[V:1]AA=c/>A/ FFA |
[V:2]Fz2 A,z2 |
[V:3]_Ez2 _E,z2 |
[V:4]=C,z2 C,z2 |
[V:1]FFA FFA |
[V:2]A,z2 A,z2 |
[V:3]_E,z2 =Cz2 |
[V:4]=C,z2 C,z2 |
[V:1]FFA FFA |
[V:2]A,4 z2 |
[V:3]F,4 z2 |
[V:4]C,4 z2 |
[V:1]FFA GGA |
[V:2]z2>E2 z2 |
[V:3]z2>A,2 z2 |
[V:4]z2>C,2 z2 |
[V:1]FFG/F//G// A2B |
[V:2]D6 |
[V:3]A,2B, A,2E,- |
[V:4]D,2B,, F,,2G,, |
[V:1]E2D/C//B,// A,/B,//C//D//E//F//G//A//B//A//G// |
[V:2]CE^G Az2 |
[V:3]E,CD Cz2 |
[V:4]A,,2E, A,z2 |
[V:1]FFG/F//G// A>^AB3//e// |
[V:2]D6 |
[V:3]DA,B, A,FE |
[V:4]D,2B,, F,,2G,, |
[V:1]dc3/B//c// dzA |
[V:2]FG2 Fz2 |
[V:3]AE3/D//E// Fz2 |
[V:4]A,,A,,2 D,D,,z |
[V:1]F//D//A,//D//F//D//F//D//G//D//G//D// A//F//D//F//A//F//D//d//c//B//A//G// |
[V:2][A,F]zG [AD]z[BD] |
[V:3]DzD DzD |
[V:4]D,zB,, F,,zG,, |
[V:1]F//E//F//^G//A//B//c//d//e//d//B//G// B//A//G//A//G//A//G//A//=G//A//G//A// |
[V:2][CE]z[^GB,] [A,AE]z2 |
[V:3]A,zD Cz2 |
[V:4]A,,zE,, A,,A,z |
[V:1]G//F//E//D//C//D//E//F//G//A//B//c// d//e//f//g//^g//a//g//a//^a//b//a//b// |
[V:2][A,F]zG AzB |
[V:3]DzD DzE, |
[V:4]D,zB,, F,,zG,, |
[V:1]a//b//a//b//c'//d'//e'//f'//g'//f'//g'//e'// d'zf3//d// |
[V:2]Az[cE] [Fd]z2 |
[V:3]F,zA, A,z2 |
[V:4]A,,zA,, D,D,,z |
[V:1]B//f//d//c//B//f//e//d//c//e//g//e// d//f//d//c//B//f//g//f//e//d//c//B// |
[V:2]zFE/C/ Dz2 |
[V:3]DFG Fz2 |
[V:4]D2^A, B,2z |
[V:1]A//^G//B//A//c//B//d//c//e//d//f//e// dce3//c// |
[V:2]B,2B BAz |
[V:3]D2B,/E/ E2z |
[V:4]E,2^G,, A,,2z |
[V:1]A//^G//A//c//A//c//e//c//A//a//g//e// d//c//d//f//d//f//a//f//g//f//e//d// |
[V:2]EEz AAz |
[V:3]CCz FFz |
[V:4]z6 |
[V:1]c//B//^A//B//g//f//e//d//c//B//A//B// g//f//e//d//c//B//A//B//^B/B/ |
[V:2]FFz B,2A- |
[V:3]DDz F,3- |
[V:4]z3 D,2D,, |
[V:1]c//f//a//^g//f//c//A//F//^G//B//G//^E// Fzc3//A// |
[V:2]A>F^E/^G/ Fz2 |
[V:3]F,CB, A,z2 |
[V:4]C,,2>F,,2 F,z |
[V:1]F//C//A,//C//A,//C//F//C//A//F//c//A// F//C//A,//C//A,//C//F//C//A//F//c//A// |
[V:2]CCz CCz |
[V:3]A,A,z A,A,z |
[V:4]F,F,z F,F,z |
[V:1]F//C//A,//C//F//C//A,//C//A//C//A,//C// F//C//A,//C//F//C//A,//C//A//C//A,//C// |
[V:2]z6 |
[V:3]z6 |
[V:4]z6 |
[V:1]F//D//A,//D//F//D//F//D//G//D//G//D// A//F//D//F//A//F//D//d//c//B//A//G// |
[V:2][FA,]zG [AD]z[BD] |
[V:3]DzD DzD |
[V:4]D,zB,, F,,zG,, |
[V:1]F//E//F//^G//A//B//c//d//e//d//B//G// B//A//G//A//G//A//G//A//=G//A//G//A// |
[V:2][CE]z[^GB,] [AA,E]z2 |
[V:3]A,zD Cz2 |
[V:4]A,,zE,, A,,A,z |
[V:1]G//F//E//D//C//D//E//F//G//A//B//c// d//e//f//g//^g//a//g//a//^a//b//a//b// |
[V:2]D6 |
[V:3]F,A,B, A,FG |
[V:4]D,2B,, F,,2G,, |
[V:1]a//b//a//b//c'//d'//e'//f'//g'//f'//g'//e'// d'2d'3//b// |
[V:2]F2c d2z |
[V:3]D2A/G/ F2z |
[V:4]A,,2A, B,2z |
[V:1]ggb/>g/ ffa3//f// |
[V:2]c//d//c//d//c//d//z3/ c//d//c//d//c//d//z3/ |
[V:3]BBz AAz |
[V:4]z6 |
[V:1]eef g2b3//g// |
[V:2]d//c//d//c//d/d/d/d/ d2z |
[V:3]GGA B2z |
[V:4]z6 |
[V:1]ffa/>f/ ee^e |
[V:2]c//d//c//d//c//d//z3/ d//c//d//c//d/d/d/d/ |
[V:3]AAz GG^G |
[V:4]z6 |
[V:1]f6- |
[V:2]d6- |
[V:3]A6- |
[V:4]z4 zA,,3//D,// |
[V:1]f2e3 d- |
[V:2]d2c3 B- |
[V:3]A2G3 =F- |
[V:4]F,F,A,,/>E,/ G,G,A,,3//D,// |
[V:1]d2c2 cc |
[V:2]B2G2 EE |
[V:3]F2E2 GG, |
[V:4]^G,G,A,,/>=G,/ _B,A,G, |
[V:1](3:2:6=c2A/F/^D/F/ A/c2z |
[V:2]A,4- [A,D]z |
[V:3]=C4- Cz |
[V:4]F,4- F,G,,3//B,,// |
[V:1]zzf//g//f//g// bbz |
[V:2]zz^D//E//D//E// GGz |
[V:3]z4 zF//G//F//G// |
[V:4]E,E,2 <z2^D,,//E,,//D,,//E,,// |
[V:1]zzf//g//f//g// bz/b/a//g//f//e// |
[V:2]zz^D//E//D//E// Gz2 |
[V:3]BBz4 |
[V:4]G,,G,,z4 |
[V:1]dz/b/a//g//f//e// dz/B/A//G//F//E// |
[V:2]Fz2 Fz2 |
[V:3]Dz2 Dz2 |
[V:4]A,z2 A,z2 |
[V:1]Dz/b//a//g//f//e//d// c//B//A//G//F//E//D//C//B,//A,//B,//C// |
[V:2]Fz2 [C3E3] |
[V:3]Dz2 G,3 |
[V:4]A,z2 A,,3 |
[V:1]Dzd cze |
[V:2][FD]zF Ezc |
[V:3]F,//A,//D//A,//F,//A,//F,//A,//F,//A,//F,//A,// G,//A,//C//A,//G,//A,//G,//A,//G,//A,//G,//A,// |
[V:4]D,,D,,2 D,,D,,2 |
[V:1]dzd AzA |
[V:2]dzD CzC |
[V:3]F,//A,//D//A,//F,//A,//F,//A,//F,//A,//F,//A,// G,//A,//C//A,//G,//A,//G,//A,//G,//A,//G,//A,// |
[V:4]D,,D,,2 D,,D,,2 |
[V:1]Fzd c//d//e//f//g//a//b//c'//d'//e'//f'//g'// |
[V:2]DzF Ezc3//e// |
[V:3]F,//A,//D//A,//F,//A,//F,//A,//F,//A,//F,//A,// G,//A,//C//A,//G,//A,//G,//A,//G,//A,//G,//A,// |
[V:4]D,,D,,2 D,,D,,2 |
[V:1]a'zz A//B//c//d//e//f//g//a//b//c'//d'//e'// |
[V:2]dzD C3 |
[V:3]F,//A,//D//A,//F,//A,//F,//A,//F,//A,//F,//A,// G,//A,//C//A,//G,//A,//G,//A,//G,//A,//G,//A,// |
[V:4]D,,D,,2 D,,D,,2 |
[V:1]f'zA FzA |
[V:2]DzE FzE |
[V:3]F,//A,//D//A,//F,//A,//F,//A,//G,//A,//G,//A,// F,//A,//D//A,//F,//A,//F,//A,//G,//A,//G,//A,// |
[V:4]D,,zC,, D,,zC,, |
[V:1]FFF Fzz |]
[V:2]DA,A, A,z2 |]
[V:3]F,DD Dz2 |]
[V:4]D,,D,,D,, D,,z2 |]

